X: 1
T: Dawn, The
M: 4/4
L: 1/8
R: reel
K: Amaj
A,2CE D2FA|E2CE ABcA|BE(3EEE dEcE|BdcB AFEC|
A,2CE D2FD|E2CE ABce|fefg afed|1 (3cec Be cAA2:|2 (3cec Be cAAg||
abga fece|fbbg agfa|(3gfe be (3gfe be|ac'ec' aefg|
abga fece|dcBc defg|(3aba gb afec|1 dcBe cAAg:|2 dcBe cAA2||
